X:1
T:Title
T:Title
T:Composer
C:Composer
L:1/8
Q:3/8=60
M:6/8
K:C
V:1 treble nm="Violin" snm="Vln."
V:1
 z z z z [Ee][Ee] | [cc']>[Bb][Aa] [^G^g]2 [Bb] | [Aa][Ee]/[Dd]/[Cc]/[B,B]/ [A,A][Aa][Bb] | %3
 [cc']>[dd'][ee'] [ff']>[gg'][aa'] | [G,G]3- [G,G][^G,^G][Dd] | [Cc]>[B,B][A,A] [^G,^G][G^g][dd'] | %6
 [cc']>[Bb][Aa] [^G^g]>[=G=g][Ff] | [Ee]>[Bb][Gg] [Ee]>[^F^f][^D^d] | [Ee]3 z [ee'][ee'] | %9
 [c'c'']>[bb'][aa'] [^g^g']2 [bb'] | [aa'][ee']/[dd']/[cc']/[Bb]/ [Aa][aa'][bb'] | %11
 [c'c'']>[d'd''][e'e''] [e'e'']>[f'f''][g'g''] | [^C^c]3- [Cc][_b_b'][aa'] | %13
 [ff'][Df][Ce] [B,d][_a_a'][gg'] | [ee'][Ce][B,d] [A,c][A,^F][^fd'] | %15
 [G,DBg][A,^F][^fd'] [G,DBg][A,F][fd'] |[Q:3/8=50] [G,DBg]3 z/ f/4e/4d/4c/4B/4A/4G/4F/4E/4D/4 | %17
 C/E/4C/4G/4E/4c/4G/4e/4c/4g/4e/4 c'/4g/4e'/4c'/4g'/4e'/4c''/4g'/4e''/4c''/4g''/4e''/4 | %18
 c'''/[cc']/[Bb]/[_B_b]/[Aa]/[_A_a]/ [Gg]/e/4d/4c/4B/4A/4G/4F/4E/4D/4C/4 | %19
 B,/D/4B,/4G/4D/4B/4G/4d/4B/4g/4d/4 b/4g/4d'/4b/4g'/4d'/4b'/4g'/4d''/4b'/4g''/4d''/4 | %20
 b''/[dd']/[Bb]/[_B_b]/[Aa]/[_A_a]/ [Gg]/f/4e/4d/4c/4=B/4=A/4G/4F/4E/4D/4 | %21
 C/_b/4a/4g/4f/4e/4d/4c/4_B/4A/4G/4 F/f/4g/4a/4b/4c'/4d'/4e'/4f'/4g'/4a'/4 | %22
 A,/g/4f/4e/4d/4^c/4_B/4A/4G/4F/4E/4 D/d/4e/4f/4g/4a/4b/4^c'/4d'/4e'/4f'/4 | %23
 G,/f/4e/4d/4c/4B/4A/4G/4F/4E/4D/4 C/c/4d/4_e/4f/4g/4a/4b/4c'/4d'/4_e'/4 | %24
 [_A,_Ec]>[A,Ed][A,E_e] [G,E_d]/e/4f/4g/4_a/4_b/4=b/4c'/4_d'/4=d'/4_e'/4 | %25
 [_A,_Ec]>[A,Ed][A,E_e] [G,E_d]/e/4f/4g/4_a/4_b/4=b/4c'/4_d'/4=d'/4_e'/4 | %26
 [_A,_Ec]>[A,Ed][A,E_e] [A,^Fc]>[A,Fd][A,Fe] | %27
 [G,Fd]/b/4a/4g/4f/4e/4d/4c/4B/4A/4G/4 [A,Ec]/c'/4b/4a/4g/4f/4e/4d/4c/4B/4A/4 | %28
 [CFA]>[A,Ff][_A,Fd] [G,Ec]>[G,Fd][G,DB] | C[cc'][dd'] [ee']>[ff'][gg'] | %30
 [_A,FB]>[DFB]G,/4b/4a/4g/4 f/4e/4d/4c/4B/4A/4G/4F/4E/4G/4F/4D/4 | [CEc] z z z z z | %32
 [_B,G^c]>[EGc]A,/4^c'/4_b/4a/4 g/4f/4e/4d/4c/4_B/4A/4G/4F/4A/4G/4E/4 | %33
 [DFd]>[EGd][FAd] [G_Bd]2 [FA^d] | [E^Ge]>[^FAe][GBe] [Ac]2 [=G_Be] | %35
 [FAf]>[G_Bf][Acf] [B_df]2 [_A=Bf] | [^F^A^f]>[^GBf][A^cf] [Bd]2 [=A=cf] | %37
 [GBg]>[Acg][Bdg] [c_eg]2 [_B_dg] | [_Ac_a]>[Ac_b][Aca] [_Gca]2 [Gc=a] | %39
 [Fca]>[F_d_b][F_ec'] [Fdc']2 [Fdb] | [E_d_b]2 [Ecb] [Fc_a]2 [DBa] | %41
 [_E_B_g]2 [C_Ag] [_DAf]2 [B,Af] | [^A,^F^f]>[A,F=f][A,F^d] [B,=Fd]2 [B,F^c] | %43
 [^A,^F^f]>[A,F=f][A,F^d] [B,=F=d]2 [A,Fd] | [^A,^F^d]>[A,Fe][A,F^c] [B,^DB]2 [DB^f] | %45
 [EB^g]2 [E^cg] [^F^Af]2 z | B/4^d/4^f/4^a/4b/4f/4^g/4f/4e/4d/4^c/4B/4 [Acf]>[^GBf][FAf] | %47
 ^G/4B/4^d/4g/4^g/4d/4e/4d/4^c/4B/4^A/4G/4 [=GAd]>[F^Gd][^D=Gd] | %48
 E/4^G/4B/4^d/4e/4B/4^c/4B/4^A/4G/4^F/4E/4 [^DFB]>[^CEB][B,DB] | %49
 [D^FB]>[^CEB][B,DB] A,/4=C/4F/4A/4d/4c/4A/4F/4G/4D/4B,/4G,/4 | %50
 [Bdg]>[Acg][GBg] ^D/4^F/4B/4^d/4b/4a/4^f/4d/4e/4B/4G/4E/4 | %51
 C/4E/4G/4c/4e/4g/4c'/4g/4e/4c/4G/4E/4 B,/4E/4G/4B/4e/4g/4b/4g/4e/4B/4G/4E/4 | %52
 ^A,/4^C/4E/4G/4^A/4^c/4e/4c/4A/4G/4E/4C/4 =A,/4=C/4^D/4^F/4=A/4=c/4^d/4c/4A/4F/4D/4C/4 | %53
 ^G,/4B,/4D/4F/4^G/4B/4d/4B/4G/4F/4D/4B,/4 G,/4A,/4C/4E/4A/4c/4e/4a/4c'/4a/4e/4c/4 | %54
 A/4c'/4a/4f/4c/4A/4F/4A/4E/4A/4^D/4A/4 E/4^G/4B/4e/4b/4^g/4f/4e/4d'/4b/4a/4g/4 | %55
 f/4e/4d/4c/4B/4A/4^G/4F/4E/4D/4C/4B,/4 [CEe]>[B,Ed][A,Ec] | %56
 [^Dca]>[CD][A,D] [^G,E]/4^G/4B/4e/4b/4^g/4f/4e/4d'/4b/4a/4g/4 | %57
 f/4e/4d/4c/4B/4A/4^G/4F/4E/4D/4C/4B,/4 [CEe]>[B,Ed][A,Ec] | [^Dca]>[CD][A,D] [G,E]>[A,F][A,D] | %59
 [^G,E]>[Af][A^d] [^Ge]>[af'][a^d'] | [^ge']3 z z/ ^G/4^F/4E/4D/4^C/4B,/4 || %61
[K:A] A,/C/4A,/4E/4C/4A/4E/4c/4A/4e/4c/4 a/4e/4c'/4a/4e'/4c'/4a'/4e'/4c''/4a'/4e''/4c''/4 | %62
 a''/[Aa]/[Gg]/[=G=g]/[Ff]/[=F=f]/ [Ee]/c/4B/4A/4^G/4^F/4E/4D/4C/4B,/4A,/4 | %63
 G,/B,/4G,/4E/4B,/4G/4E/4B/4G/4e/4B/4 g/4e/4b/4g/4e'/4b/4g'/4e'/4b'/4g'/4e''/4b'/4 | %64
 g''/[Bb]/[Gg]/[=G=g]/[Ff]/[=F=f]/ [Ee]/d/4c/4B/4A/4^G/4^F/4E/4D/4C/4B,/4 | %65
 A,/=g/4f/4e/4d/4c/4B/4A/4=G/4F/4E/4 D/d/4e/4f/4g/4a/4b/4c'/4d'/4e'/4f'/4 | %66
 F/e/4d/4c/4B/4^A/4=G/4F/4E/4D/4C/4 B,/B/4c/4d/4e/4f/4g/4^a/4b/4c'/4d'/4 | %67
 E/d/4c/4B/4A/4G/4F/4E/4D/4C/4B,/4 A,/A/4B/4=c/4d/4e/4f/4g/4a/4b/4=c'/4 | %68
 [A=c=f]>[=Gc=g][=Fca] [Ec_b]/e'/4d'/4=c'/4b/4a/4g/4f/4e/4d/4c/4 | %69
 [A=c=f]>[=Gc=g][=Fca] [Ec_b]/e'/4d'/4=c'/4b/4a/4g/4f/4e/4d/4c/4 | %70
 [A=c=f]>[=Gc=g][=Fca] [^Dc=c']>[Dcb][Dca] | %71
 [EBg]/e/4f/4g/4a/4b/4c'/4d'/4e'/4f'/4g'/4 [Fca]/f/4g/4a/4b/4c'/4^d'/4^e'/4f'/4g'/4a'/4 | %72
 [DAf]>[FAa][^D=ca] [E^ca]>[Edb][EBg] | A[aa'][bb'] [c'c'']>[d'd''][e'e''] | %74
 [=Fdg]>[Bdg]E/4b/4a/4g/4 f/4e/4d/4c/4B/4A/4G/4^F/4E/4D/4C/4B,/4 | [A,Eca]2 z4 |] %76

